teams/dark/134.svg

<svg xmlns="http://www.w3.org/2000/svg" viewBox="0 0 300 300"><title>Pittsburgh Pirates cap on dark logo</title><path fill="#ffc72c" d="M225.07 111.68c0 11.61 2.83 22.73 10.14 35.28-19.24 4.78-34.91 16.73-40.13 32.76-7.98-7.8-15.79-10.85-28.19-10.85l-51.14-.03v50.86c0 7.62 4.47 14.3 11.26 17.12l-11.26 27.27H84.18l-11.26-27.28c6.78-2.94 11.26-9.39 11.26-17.12V90.71c0-7.76-4.48-14.2-11.26-17.14l11.26-28.15 82.7.11c12.4 0 20.21-1.82 28.19-9.62 4.8 16.05 19.63 34.18 38.89 38.96-7.29 12.54-8.91 25.17-8.91 36.8Zm-26.83 15.11V87.8c0-8.67-6.49-15.21-16.87-15.21H115.9v68.24h65.47c11.72 0 16.87-4.95 16.87-14.04m-70.49 136.13v-7h-2.55v-1.49h6.86v1.49h-2.56v7Zm14.19 0v-6.76h-.05l-2.47 6.76h-1.65l-2.39-6.76h-.03v6.76h-1.75v-8.49h3l1.98 5.54h.03l2.07-5.54h2.98v8.49Z"/></svg>

<svg width="300" height="300" viewBox="0 0 300 300" fill="none" xmlns="http://www.w3.org/2000/svg">
<path d="M225.07 111.68C225.07 123.29 227.9 134.41 235.21 146.96C215.97 151.74 200.3 163.69 195.08 179.72C187.1 171.92 179.29 168.87 166.89 168.87L115.75 168.84V219.7C115.75 227.32 120.22 234 127.01 236.82L115.75 264.09H84.18L72.92 236.81C79.7 233.87 84.18 227.42 84.18 219.69V90.71C84.18 82.95 79.7 76.51 72.92 73.57L84.18 45.42L166.88 45.53C179.28 45.53 187.09 43.71 195.07 35.91C199.87 51.96 214.7 70.09 233.96 74.87C226.67 87.41 225.05 100.04 225.05 111.67L225.07 111.68ZM198.24 126.79V87.8C198.24 79.13 191.75 72.59 181.37 72.59H115.9V140.83H181.37C193.09 140.83 198.24 135.88 198.24 126.79Z" fill="#FFC72C"/>
</svg>
